.local/share/icons/Gruvbox-Plus-Dark/panel/16/keybase-update.svg

<svg xmlns="http://www.w3.org/2000/svg" width="16" height="16" version="1.1">
 <defs>
  <style id="current-color-scheme" type="text/css">
   .ColorScheme-Text { color:#ebdbb2; } .ColorScheme-Highlight { color:#458588; }
  </style>
 </defs>
 <path style="fill:currentColor" class="ColorScheme-Text" d="M 7 1 C 6.96924 1 6.659927 1.6290934 6.46875 2.0078125 C 6.1888835 2.562226 6.0555541 2.9898894 6.0097656 3.4824219 C 5.9984536 3.6041319 6.0002225 3.7242929 6.0078125 3.8417969 C 6.0030825 3.8947319 6.00049 3.946858 6 4 C 6 4.4587653 6.1601643 4.8774025 6.4199219 5.2148438 C 4.9615166 5.6130806 3.7224106 6.545039 2.9316406 7.7910156 C 2.7764446 7.9939532 2.6404076 8.204923 2.5410156 8.4316406 C 2.3848326 8.7879022 2.2676025 9.1563479 2.1796875 9.5546875 C 2.1211875 9.7910527 2.0725127 10.030858 2.0429688 10.277344 C 2.0403687 10.299284 2.0478637 10.303891 2.0585938 10.300781 C 2.0473136 10.395721 2.0322175 10.486503 2.0234375 10.585938 C 1.9953175 10.904695 1.9922619 11.035155 2.0136719 11.035156 L 6 7 L 5.0390625 10.011719 C 5.0442625 10.016919 4.9331779 10.059399 5.0664062 9.9980469 C 5.8849512 9.6211567 6.6352694 9.1115363 7.5371094 9.0039062 C 7.8481182 8.9667904 8.9257704 8.966026 9.25 9 C 9.57761 9.0343275 9.8914166 9.219586 10.214844 9.421875 A 4 4 0 0 1 12 9 A 4 4 0 0 1 13.205078 9.1855469 C 13.293396 8.938976 13.334471 8.6708621 13.302734 8.4257812 C 13.295934 8.3733493 13.282114 8.3243231 13.271484 8.2734375 C 13.292644 8.2210445 13.272983 8.1323305 13.189453 7.9863281 C 13.107263 7.7679272 12.985456 7.5499904 12.802734 7.3027344 C 11.917775 6.3302765 10.8369 5.5643702 9.5800781 5.2128906 C 9.8392798 4.8756471 10 4.4582227 10 4 C 9.999983 3.949163 9.9980506 3.8983453 9.9941406 3.8476562 C 9.9958406 3.7969863 10.000627 3.745172 9.9980469 3.6953125 C 9.9627559 3.010501 9.566885 2.5413464 8.96875 2.2324219 C 8.6520787 2.0688674 8.167645 1.9928182 7.8515625 1.9921875 C 7.3695269 1.9261045 7.2900031 1.2786987 7 1 z M 4.5527344 9.8867188 C 4.5527344 9.8867185 4.1387175 10.24991 2.7246094 11.738281 C 2.5567584 11.908014 2.3317251 11.999422 2.0957031 12.019531 A 6 6 0 0 0 3.5371094 15 L 8.5410156 15 A 4 4 0 0 1 8 13 A 4 4 0 0 1 9.2871094 10.066406 C 9.2577293 10.05454 9.1523473 9.9947561 9.1464844 9.9941406 C 9.0522454 9.9842606 7.698979 9.9909937 7.65625 9.9960938 C 7.0599863 10.067255 6.4051922 10.482424 5.4902344 10.904297 C 5.4878344 10.905497 5.486775 10.905103 5.484375 10.90625 C 5.481095 10.90785 5.47194 10.914416 5.46875 10.916016 C 5.418052 10.941056 5.411068 10.946749 5.3300781 10.974609 C 5.3098311 10.981609 5.2136109 11.007663 5.2128906 11.007812 C 5.2125305 11.007897 4.9533051 11.029297 4.953125 11.029297 L 4.625 10.957031 L 4.5390625 10.917969 L 5 10.03125 C 5 10.03125 4.7758519 9.9583791 4.5527344 9.8867188 z M 12 10 C 10.343249 10 9 11.35 9 13 C 9 14.65 10.343249 16 12 16 C 13.65675 16 15 14.65 15 13 C 15 11.35 13.65675 10 12 10 z M 12 11 A 2 2 0 0 1 14 13 L 13 13 A 1 1 0 0 0 12 12 L 12 11 z M 5 12 A 1 1 0 0 1 6 13 A 1 1 0 0 1 5 14 A 1 1 0 0 1 4 13 A 1 1 0 0 1 5 12 z M 10 13 L 11 13 A 1 1 0 0 0 12 14 L 12 15 A 2 2 0 0 1 10 13 z"/>
</svg>

<svg width="16" height="16" version="1.1" xmlns="http://www.w3.org/2000/svg">
  <defs>
    <style id="current-color-scheme" type="text/css">.ColorScheme-Text { color:#ebdbb2; } .ColorScheme-Highlight { color:#458588; } .ColorScheme-NeutralText { color:#fe8019; } .ColorScheme-PositiveText { color:#689d6a; } .ColorScheme-NegativeText { color:#fb4934; }</style>
  </defs>
  <path class="ColorScheme-Text" d="m12 10c-1.657 0-3 1.35-3 3s1.343 3 3 3 3-1.35 3-3-1.343-3-3-3zm0 1c1.105 0 2 0.8954 2 2h-1c0-0.5523-0.4477-1-1-1zm-2 2h1c0 0.5523 0.4477 1 1 1v1c-1.105 0-2-0.8954-2-2zm-2.964-11.99c-0.2637 0.4179-0.5294 1.006-0.5312 1.006-0.2532 0.5015-0.9227 2.071-0.04883 3.207-4.452 1.196-4.583 5.82-4.406 5.82l3.986-4.035-0.9609 3.012c0.0578 0.0578 1.365-0.8724 2.498-1.008 0.6535-0.05369 1.031-0.1212 1.713-0.00391 0.3257 0.05847 0.6249 0.2298 0.9277 0.4141 0.557-0.2825 1.172-0.431 1.797-0.4336 0.424 6.366e-4 0.8453 0.06854 1.248 0.2012 0.1709-0.452 0.1623-1.089-0.4199-1.877-0.885-0.9725-1.966-1.738-3.223-2.09 0.475-0.618 0.8904-2.206-0.6113-2.982-0.3167-0.1636-0.8013-0.2396-1.117-0.2402-0.482-0.06608-0.5616-0.7115-0.8516-0.9902zm-2.447 8.883-1.828 1.854c-0.1679 0.1697-0.3929 0.2612-0.6289 0.2812 0.1914 1.109 0.6913 2.141 1.441 2.979h4.977c-0.3565-0.6093-0.5458-1.302-0.5488-2.008 0.0028-1.124 0.4776-2.196 1.309-2.953-0.04489-0.02018-0.08878-0.03656-0.127-0.04492-0.4232-0.0909-1.089-0.04602-1.49 0.0019-0.9391 0.1121-2.012 1.033-2.703 1.033-0.1456-0.0086-0.278-0.07471-0.4141-0.1113l0.4609-0.8867zm0.4473 2.115c0.5523 0 1 0.4477 1 1s-0.4477 1-1 1-1-0.4477-1-1 0.4477-1 1-1z" fill="currentColor"/>
</svg>
